pages/Absolute/img/icon_srok.svg

<svg width="58" height="57" viewBox="0 0 58 57" fill="none" xmlns="http://www.w3.org/2000/svg">
<g clip-path="url(#clip0)">
<path d="M42.3327 4.42243C41.8757 2.18272 39.8915 0.491394 37.5182 0.491394C36.9757 0.491394 36.5354 0.930687 36.5354 1.47415C36.5354 2.01762 36.9757 2.45691 37.5182 2.45691C39.1437 2.45691 40.4664 3.7797 40.4664 5.40519C40.4664 7.03067 39.1437 8.35346 37.5182 8.35346C36.9757 8.35346 36.5354 8.79276 36.5354 9.33622C36.5354 9.87969 36.9757 10.319 37.5182 10.319C39.8905 10.319 41.8757 8.62765 42.3327 6.38795H55.2078V15.2328H2.13886V6.38795H15.8975H18.8458C19.3882 6.38795 19.8285 5.94865 19.8285 5.40519C19.8285 4.86172 19.3882 4.42243 18.8458 4.42243H17.0611C17.4679 3.28046 18.549 2.45691 19.8285 2.45691C21.454 2.45691 22.7768 3.7797 22.7768 5.40519C22.7768 7.03067 21.454 8.35346 19.8285 8.35346C19.286 8.35346 18.8458 8.79276 18.8458 9.33622C18.8458 9.87969 19.286 10.319 19.8285 10.319C22.538 10.319 24.7423 8.11465 24.7423 5.40519C24.7423 2.69572 22.538 0.491394 19.8285 0.491394C17.4561 0.491394 15.471 2.18272 15.014 4.42243H0.17334V17.1983V56.5086H57.1733V17.1983V4.42243H42.3327ZM55.2078 54.5431H2.13886V17.1983H55.2078V54.5431Z" fill="#387553"/>
<path d="M25.7252 2.45691C27.3507 2.45691 28.6735 3.7797 28.6735 5.40519C28.6735 7.03067 27.3507 8.35346 25.7252 8.35346C25.1827 8.35346 24.7424 8.79276 24.7424 9.33622C24.7424 9.87969 25.1827 10.319 25.7252 10.319C28.4347 10.319 30.639 8.11465 30.639 5.40519C30.639 2.69572 28.4347 0.491394 25.7252 0.491394C25.1827 0.491394 24.7424 0.930687 24.7424 1.47415C24.7424 2.01762 25.1827 2.45691 25.7252 2.45691Z" fill="#387553"/>
<path d="M31.6217 2.45691C33.2472 2.45691 34.57 3.7797 34.57 5.40519C34.57 7.03067 33.2472 8.35346 31.6217 8.35346C31.0792 8.35346 30.6389 8.79276 30.6389 9.33622C30.6389 9.87969 31.0792 10.319 31.6217 10.319C34.3311 10.319 36.5355 8.11465 36.5355 5.40519C36.5355 2.69572 34.3311 0.491394 31.6217 0.491394C31.0792 0.491394 30.6389 0.930687 30.6389 1.47415C30.6389 2.01762 31.0792 2.45691 31.6217 2.45691Z" fill="#387553"/>
<path d="M9.01816 25.0604H30.6388C31.1813 25.0604 31.6216 24.6211 31.6216 24.0776C31.6216 23.5341 31.1813 23.0948 30.6388 23.0948H9.01816C8.47568 23.0948 8.0354 23.5341 8.0354 24.0776C8.0354 24.6211 8.47568 25.0604 9.01816 25.0604Z" fill="#387553"/>
<path d="M48.3284 38.819H33.587C33.0445 38.819 32.6042 39.2583 32.6042 39.8017C32.6042 40.3452 33.0445 40.7845 33.587 40.7845H48.3284C48.8709 40.7845 49.3111 40.3452 49.3111 39.8017C49.3111 39.2583 48.8709 38.819 48.3284 38.819Z" fill="#387553"/>
<path d="M9.01816 32.9224H18.8457C19.3882 32.9224 19.8285 32.4831 19.8285 31.9397C19.8285 31.3962 19.3882 30.9569 18.8457 30.9569H9.01816C8.47568 30.9569 8.0354 31.3962 8.0354 31.9397C8.0354 32.4831 8.47568 32.9224 9.01816 32.9224Z" fill="#387553"/>
<path d="M48.3284 46.681H38.5008C37.9583 46.681 37.5181 47.1203 37.5181 47.6638C37.5181 48.2073 37.9583 48.6466 38.5008 48.6466H48.3284C48.8709 48.6466 49.3112 48.2073 49.3112 47.6638C49.3112 47.1203 48.8709 46.681 48.3284 46.681Z" fill="#387553"/>
<path d="M27.6907 31.9397C27.6907 32.4831 28.1309 32.9224 28.6734 32.9224H43.4148C43.9573 32.9224 44.3976 32.4831 44.3976 31.9397C44.3976 31.3962 43.9573 30.9569 43.4148 30.9569H28.6734C28.1309 30.9569 27.6907 31.3962 27.6907 31.9397Z" fill="#387553"/>
<path d="M24.4574 32.6374C24.6343 32.4507 24.7424 32.1952 24.7424 31.9397C24.7424 31.6832 24.6343 31.4276 24.4574 31.2419C24.0937 30.8783 23.4255 30.8783 23.0619 31.2419C22.885 31.4276 22.7769 31.6832 22.7769 31.9397C22.7769 32.1952 22.885 32.4507 23.0619 32.6374C23.2486 32.8232 23.5041 32.9224 23.7596 32.9224C24.0151 32.9224 24.2706 32.8232 24.4574 32.6374Z" fill="#387553"/>
<path d="M12.9492 39.8017C12.9492 40.3452 13.3895 40.7845 13.932 40.7845H28.6734C29.2158 40.7845 29.6561 40.3452 29.6561 39.8017C29.6561 39.2583 29.2158 38.819 28.6734 38.819H13.932C13.3895 38.819 12.9492 39.2583 12.9492 39.8017Z" fill="#387553"/>
<path d="M9.01816 40.7845C9.27368 40.7845 9.52919 40.6764 9.71592 40.4995C9.89281 40.3127 10.0009 40.0572 10.0009 39.8017C10.0009 39.5452 9.89281 39.2897 9.71592 39.1138C9.3523 38.7403 8.68402 38.7403 8.3204 39.104C8.1435 39.2897 8.0354 39.5452 8.0354 39.8017C8.0354 40.0572 8.1435 40.3127 8.3204 40.4995C8.50712 40.6764 8.75281 40.7845 9.01816 40.7845Z" fill="#387553"/>
<path d="M48.3285 32.9224C48.584 32.9224 48.8395 32.8232 49.0262 32.6374C49.2129 32.4507 49.3112 32.1952 49.3112 31.9397C49.3112 31.6832 49.2129 31.4276 49.0262 31.2419C48.6528 30.8783 47.9943 30.8783 47.6307 31.2419C47.4538 31.4276 47.3457 31.6832 47.3457 31.9397C47.3457 32.1952 47.4538 32.4507 47.6307 32.6374C47.8174 32.8232 48.0729 32.9224 48.3285 32.9224Z" fill="#387553"/>
<path d="M33.5871 46.681H9.01816C8.47568 46.681 8.0354 47.1203 8.0354 47.6638C8.0354 48.2073 8.47568 48.6466 9.01816 48.6466H33.5871C34.1296 48.6466 34.5699 48.2073 34.5699 47.6638C34.5699 47.1203 34.1296 46.681 33.5871 46.681Z" fill="#387553"/>
</g>
<defs>
<clipPath id="clip0">
<rect width="57" height="57" fill="white" transform="translate(0.17334)"/>
</clipPath>
</defs>
</svg>

<svg width="58" height="57" fill="none" xmlns="http://www.w3.org/2000/svg">
  <g clip-path="url(#clip0)" fill="#387553">
    <path d="M42.333 4.422a4.922 4.922 0 00-4.815-3.93.983.983 0 100 1.965 2.952 2.952 0 012.948 2.948 2.952 2.952 0 01-2.948 2.948.983.983 0 100 1.966 4.923 4.923 0 004.815-3.931h12.875v8.845H2.138V6.388h16.708a.982.982 0 100-1.966H17.06a2.943 2.943 0 012.767-1.965 2.952 2.952 0 012.949 2.948 2.952 2.952 0 01-2.949 2.948.982.982 0 100 1.966 4.92 4.92 0 004.914-4.914A4.92 4.92 0 0019.828.491a4.923 4.923 0 00-4.814 3.931H.174v52.086h57V4.423H42.332zm12.875 50.121H2.138V17.198h53.07v37.345z"/>
    <path d="M25.725 2.457a2.952 2.952 0 012.948 2.948 2.952 2.952 0 01-2.948 2.948.983.983 0 100 1.966 4.92 4.92 0 004.914-4.914A4.92 4.92 0 0025.725.491a.983.983 0 100 1.966z"/>
    <path d="M31.622 2.457a2.952 2.952 0 012.948 2.948 2.952 2.952 0 01-2.948 2.948.983.983 0 100 1.966 4.92 4.92 0 004.913-4.914A4.92 4.92 0 0031.622.491a.983.983 0 100 1.966zM9.018 25.06h21.62a.983.983 0 100-1.965H9.019a.983.983 0 100 1.965zM48.328 38.819H33.587a.983.983 0 100 1.965h14.741a.982.982 0 100-1.965zM9.018 32.922h9.828a.983.983 0 100-1.965H9.018a.983.983 0 100 1.965zM48.328 46.681h-9.827a.982.982 0 100 1.966h9.827a.983.983 0 100-1.966zM27.69 31.94c0 .543.44.982.983.982h14.742a.983.983 0 100-1.965H28.673a.982.982 0 00-.982.983zM24.457 32.637c.177-.186.285-.442.285-.697a1.03 1.03 0 00-.285-.698c-.363-.364-1.032-.364-1.395 0a1.03 1.03 0 00-.285.698c0 .255.108.51.285.697a.993.993 0 001.395 0zM12.95 39.802c0 .543.44.983.982.983h14.741a.983.983 0 100-1.966H13.932a.983.983 0 00-.983.983zM9.018 40.785c.256 0 .511-.109.698-.285.177-.187.285-.443.285-.698a.988.988 0 00-.285-.688c-.364-.374-1.032-.374-1.396-.01a1.03 1.03 0 00-.285.698c0 .255.108.51.285.697.187.177.433.285.698.285zM48.328 32.922c.256 0 .511-.099.698-.285a.99.99 0 00.285-.697.986.986 0 00-.285-.698c-.373-.364-1.032-.364-1.395 0a1.03 1.03 0 00-.285.698c0 .255.108.51.285.697a.993.993 0 00.697.285zM33.587 46.681H9.018a.983.983 0 100 1.966h24.57a.983.983 0 100-1.966z"/>
  </g>
  <defs>
    <clipPath id="clip0">
      <path fill="#fff" transform="translate(.173)" d="M0 0h57v57H0z"/>
    </clipPath>
  </defs>
</svg>
